X:78
T: HEIDA LUSTIG ICH BIN HANS
N: F0184
O: Europa, Mitteleuropa, Deutschland
R: Scherz - Lied, Moral, Zufriedenheit
M: 2/4
L: 1/16
K: C
 | c3Bc2G2 | A2F2G4 |
c2G2E2C2 | D4C4 |
E2D2E2D2 | E2F2G4 |
F2E2F2G2 | A4G4 |
_B2G2A2F2 | G2E2F4 |
F2G2A2B2 | c4G4 |
c3Bc2G2 | A2F2G4 |
C2D2E2F2 | G4C4

@@@ Tune index: 5509
